packages/sources/icons/src/vitamix/unlink-line.svg

<svg width="16" height="16" viewBox="0 0 16 16" xmlns="http://www.w3.org/2000/svg"><path d="M11.3333 11.3333H14.6666V12.6667H12.6666V14.6667H11.3333V11.3333ZM4.66665 4.66666H1.33331V3.33333H3.33331V1.33333H4.66665V4.66666ZM12.2426 10.3573L11.3 9.41333L12.2426 8.47066C12.5544 8.16163 12.802 7.79406 12.9714 7.38906C13.1407 6.98406 13.2283 6.54961 13.2293 6.11064C13.2303 5.67167 13.1445 5.23684 12.977 4.8311C12.8094 4.42536 12.5634 4.05671 12.253 3.74632C11.9426 3.43592 11.5739 3.18989 11.1682 3.02235C10.7625 2.8548 10.3276 2.76905 9.88867 2.77001C9.4497 2.77098 9.01525 2.85863 8.61025 3.02795C8.20525 3.19726 7.83768 3.44491 7.52865 3.75666L6.58598 4.7L5.64265 3.75733L6.58665 2.81466C7.46186 1.93945 8.64891 1.44776 9.88665 1.44776C11.1244 1.44776 12.3114 1.93945 13.1866 2.81466C14.0619 3.68988 14.5536 4.87692 14.5536 6.11466C14.5536 7.3524 14.0619 8.53945 13.1866 9.41466L12.2433 10.3573H12.2426ZM10.3573 12.2427L9.41398 13.1853C8.53877 14.0605 7.35172 14.5522 6.11398 14.5522C4.87624 14.5522 3.68919 14.0605 2.81398 13.1853C1.93877 12.3101 1.44707 11.1231 1.44707 9.88533C1.44707 8.64759 1.93877 7.46054 2.81398 6.58533L3.75731 5.64266L4.69998 6.58666L3.75731 7.52933C3.44556 7.83836 3.19792 8.20593 3.0286 8.61093C2.85928 9.01593 2.77163 9.45039 2.77067 9.88935C2.7697 10.3283 2.85546 10.7632 3.023 11.1689C3.19054 11.5746 3.43657 11.9433 3.74697 12.2537C4.05737 12.5641 4.42601 12.8101 4.83175 12.9776C5.23749 13.1452 5.67232 13.2309 6.11129 13.23C6.55026 13.229 6.98471 13.1414 7.38971 12.972C7.79471 12.8027 8.16228 12.5551 8.47131 12.2433L9.41398 11.3007L10.3573 12.2433V12.2427ZM9.88531 5.17133L10.8286 6.11466L6.11465 10.828L5.17131 9.88533L9.88531 5.17199V5.17133Z"/></svg>

<svg width="16" height="16" xmlns="http://www.w3.org/2000/svg"><path d="M11.333 11.333h3.334v1.334h-2v2h-1.334v-3.334ZM4.667 4.667H1.333V3.333h2v-2h1.334v3.334Zm7.576 5.69-.943-.944.943-.942a3.334 3.334 0 1 0-4.714-4.714l-.943.943-.943-.943.944-.942a4.667 4.667 0 1 1 6.6 6.6l-.944.942Zm-1.886 1.886-.943.942a4.667 4.667 0 0 1-6.6-6.6l.943-.942.943.944-.943.942a3.333 3.333 0 1 0 4.714 4.714l.943-.942.943.942ZM9.885 5.17l.944.944-4.714 4.713-.944-.943 4.714-4.713Z"/></svg>
